src/assets/images/icons/instagram.svg

<svg xmlns="http://www.w3.org/2000/svg" width="24" height="24" viewBox="0 0 24 24" fill="none">
<g>
<g>
<path fill-rule="evenodd" clip-rule="evenodd" d="M23.2727 10.3636V21.4545C23.2727 22.468 22.4684 23.2727 21.4545 23.2727H2.54545C1.532 23.2727 0.727273 22.468 0.727273 21.4545V10.3636V2.54545C0.727273 1.532 1.532 0.727273 2.54545 0.727273H21.4545C22.4684 0.727273 23.2727 1.532 23.2727 2.54545V10.3636ZM2.54545 0C1.14182 0 0 1.14182 0 2.54545V21.4545C0 22.8582 1.14182 24 2.54545 24H21.4545C22.8585 24 24 22.8582 24 21.4545V2.54545C24 1.14182 22.8585 0 21.4545 0H2.54545Z" fill="currentColor"/>
<path d="M12 17C14.7614 17 17 14.7614 17 12C17 9.23858 14.7614 7 12 7C9.23858 7 7 9.23858 7 12C7 14.7614 9.23858 17 12 17Z" stroke="currentColor" stroke-width="0.7"/>
<path d="M18.1696 4.36914C17.374 4.36914 16.7349 5.00827 16.7349 5.80392C16.7349 6.59958 17.374 7.23871 18.1696 7.23871C18.9653 7.23871 19.6044 6.59958 19.6044 5.80392C19.6044 5.00827 18.9653 4.36914 18.1696 4.36914Z" fill="currentColor"/>
</g>
</g>
</svg>

<svg xmlns="http://www.w3.org/2000/svg" width="24" height="24" viewBox="0 0 24 24" fill="none"><path fill-rule="evenodd" clip-rule="evenodd" d="M23.273 10.364v11.09a1.806 1.806 0 0 1-1.819 1.819H2.546a1.806 1.806 0 0 1-1.818-1.819V2.546c0-1.013.805-1.818 1.818-1.818h18.91c1.013 0 1.818.805 1.818 1.818v7.819ZM2.545 0A2.548 2.548 0 0 0 0 2.545v18.91A2.548 2.548 0 0 0 2.545 24h18.91A2.548 2.548 0 0 0 24 21.454V2.546A2.548 2.548 0 0 0 21.454 0H2.546Z" fill="currentColor"/><path d="M12 17a5 5 0 1 0 0-10 5 5 0 0 0 0 10Z" stroke="currentColor" stroke-width=".7"/><path d="M18.17 4.37a1.43 1.43 0 0 0-1.435 1.434 1.43 1.43 0 0 0 1.435 1.435 1.43 1.43 0 0 0 1.434-1.435 1.43 1.43 0 0 0-1.434-1.435Z" fill="currentColor"/></svg>
